X:26
T:Morrison's Jig
S:Bernie Waugh
R:Jig
M:6/8
L:1/8
K:B minor
|:\
"Em"E~EE BEB|EBE "Bm"AFD|"Em"E~EE B2c|"D"dcB AFD|
"Em"E~EE BEB|EBE "D"AFD|"G"G2G FGA|"Bm"dAG FED:|
"Em"Bee fee|bee "Bm"fed|"C"Bee fee|"A"fag fed|
"Em"Bee fee|bee "D"e2f|"G"gfe d2A|"D"BAG FED|
"Em"Bee fee|bee "Bm"fed|"C"Bee fee|"D"faf def|
"G"g2g gfe|def g2d|"D"edB d2A|"Bm"BAG FED||

